X:1
T:Westford
T:D minor              Hezekiah Moors, 1809
T:Transcribed from Province Harmony , 1809; Counter by B. C. Johnston, 2018.
T:Isaac Watts, 1707 (Hymn 97, Book 1)             88. 88. (L. M.)
%%score [ 1 2 3 4 ]
L:1/8
Q:1/4=70
M:3/4
K:F
V:1 treble nm="Tr." snm="Tr."
V:2 treble nm="C." snm="C."
V:3 treble-8 nm="T." snm="T."
V:4 bass nm="B." snm="B."
V:1
 Af | (f e3) d2 | (d ^c3) A2 | A4 ^G2 | A4 A2 | F4 G2 | (A>G F2) B2 | (B A3) A2 | A4 A2 || %9
w: 1. We *|lie * in|sha- * dows|of the|night Bu-|ried till|Christ * * re-|stores * the|light; Wis-|
[M:2/4] A2 A2 | FG A2 | B2 A2 | A3 A | F2 GF | FG GA | BA GF | F3 c/B/ | A2 d^c | dA BG | AB A2 | %20
w: dom de-|scends * to|heal the|blind, And|chase the *|dark- * ness *|of * the *|mind, And *|chase the *|dark- * ness *|of * the|
 A4 |] %21
w: mind.|
V:2
 DF | A4 d2 | (d ^c3) A2 | A4 ^G2 | A4 A2 | (B2 A2) E2 | (F>G A2) B2 | A4 ^c2 | d4 A2 || %9
w: 2. Our *|guil- ty|souls * are|drowned in|tears Till|his * a-|to- * * ning|blood ap-|pears; Then|
w: 3. Our *|ve- ry|frame * is|mixed with|sin, His|spi- * rit|makes * * our|na- tures|clean; Such|
[M:2/4] d^c d2 | AG A2 | G2 A2 | A3 A | A2 GF | AG GA | GA GA | A3 G | Ad d^c | dA ED | FG A2 | %20
w: we * a-|wake * from|deep dis-|tress, And|sing, The *|Lord * our *|Right- * eous- *|ness, And|sing, * The *|Lord * our *|Right- * eous-|
w: vir- * tues|from * his|suf- ferings|flow, At|once to *|cleanse * and *|par- * don *|too, At|once * to *|cleanse * and *|par- * don|
 A4 |] %21
w: ness.|
w: too.|
V:3
 d2 | (d ^c3) d2 | (d e3) f>e | d4 ^c=B | A4 A2 | (B2 A2) G2 | (F>G A2) d2 | (d ^c3) c2 | d4 d2 || %9
w: 4. Je-|sus * be-|holds * where *|Sa- tan *|reigns, Bin-|ding * his|slaves * * in|hea- * vy|chains; He|
w: 5. Poor|help- * less|worms * in *|thee pos- *|sess Grace,|wis- * dom,|power, * * and|right- * eous-|ness; Thou|
[M:2/4] d^c d2 | AG F2 | G2 d2 | (d ^c2) c | A2 BA | AG GF | GA BA | A3 G | Ad de | fe ed | %19
w: sets * the|pri- * soners|free, and|breaks * The|ir- on *|bon- * dage *|from * our *|necks, The|ir- * on *|bon- * dage *|
w: art * our|migh- * ty|All, and|we * Give|our whole *|selves, * O *|Lord, * to *|thee, Give|our * whole *|selves, * O *|
 d2 d^c | d4 |] %21
w: from our *|necks.|
w: Lord, to *|thee.|
V:4
 D,2 | A,,4 D,2 | A,4 A,2 | D,4 E,2 | A,,4 D,2 | D,4 E,2 | (F,>E, D,2) G,,2 | A,,4 A,,2 | %8
 D,4 D,2 ||[M:2/4] A,,2 D,2 | F,E, D,2 | ^C,2 D,2 | A,3 A, | D,2 F,2 | C,2 C,2 | C,2 C,2 | F,3 E, | %17
 D,2"_______________________________________________________________________________________________________________________________________________\nEdited by B. C. Johnston, 2018  \n   1. Grace eighth-notes replaced with normal eighth-notes in measures 2 (Tr, T), 3 (Tr, T), 8 (Tr, T), 10 (T), 13 (T), and 20 (T).\n   2. Measure 18, \nTenor\n: first note, B-flat replaced with A.\n   3. \nCounter\n part written.\n   4, These words substituted for original words, Alas! the night, the autumnal eve." D,A,, | %18
 D,A, G,2 | F,G, A,2 | D,4 |] %21

